X:1
T:Carmina, 76.76
T:Carmina, 76.76
T:Arranged from Friedrich Flowtow (1812-1883)
T:Public Domain Courtesy of the Cyber Hymnal™
C:Arranged from Friedrich Flowtow (1812-1883)
Z:Public Domain
Z:Courtesy of the Cyber Hymnal™
%%score ( 1 2 ) ( 3 4 )
L:1/8
Q:1/4=110
M:4/4
K:G
V:1 treble 
V:2 treble 
V:3 bass 
V:4 bass 
V:1
 D2 | [DG]2 (FG) [Dc]2 [DB]2 | [FA]4 G2 (GA) | [DB]2 [^DB]2 [EB]2 (AG) | [DA]6 D2 | %5
 [DG]2 (FG) [Ec]2 [DB]2 | [CA]4 [B,G]2 [=Fd]2 | [Ed]2 [Ec]2 A3 z B | G6 |] %9
V:2
 D2 | x2 D2 x4 | x4 G2 D2 | x6 ^C2 | x6 D2 | x2 D2 x4 | x8 | x4 F2 F2 x | G6 |] %9
V:3
 [G,B,]2 | [G,B,]2 ([A,C][G,B,]) [F,A,]2 [G,B,]2 | [D,C]4 [G,B,]2 ([B,D][A,C]) | %3
 [G,B,]2 [F,A,]2 [E,G,]2 [E,G,]2 | [D,F,]6 [C,F,]2 | [B,,G,]2 ([C,A,][B,,G,]) [C,G,]2 [G,,G,]2 | %6
 [D,F,]4 [E,G,]2 [B,,G,]2 | [C,^G,]2 [C,A,]2 C3 z D | [G,B,]6 |] %9
V:4
 x2 | x8 | x8 | x8 | x8 | x8 | x8 | x4 D,2 D,2 x | x6 |] %9

